docs/img/svg/footer__contacts-whatsapp.svg

<svg width="24" height="24" viewBox="0 0 24 24" fill="none" xmlns="http://www.w3.org/2000/svg">
<path d="M12.1245 5.67188C8.71763 5.67188 5.95792 8.41256 5.95792 11.8003C5.95792 13.1326 6.39567 14.3888 7.13793 15.3975L6.3576 17.6814L8.73667 16.9201C9.70732 17.5672 10.8873 17.9288 12.1435 17.9288C15.5503 17.9288 18.3291 15.1881 18.3291 11.8003C18.31 8.41256 15.5313 5.67188 12.1245 5.67188ZM15.7406 14.3317C15.5884 14.7504 14.8461 15.1501 14.5226 15.1881C14.199 15.2262 14.199 15.4546 12.3528 14.7504C10.5257 14.0272 9.36474 12.181 9.26958 12.0478C9.17441 11.9336 8.52731 11.0771 8.52731 10.2016C8.52731 9.32612 8.98409 8.88837 9.15538 8.71708C9.32667 8.54578 9.517 8.48869 9.63119 8.48869C9.74539 8.48869 9.87862 8.50772 9.97378 8.50772C10.088 8.50772 10.2212 8.45062 10.3735 8.81224C10.5257 9.17386 10.8873 10.0494 10.9254 10.1445C10.9635 10.2397 11.0015 10.3348 10.9444 10.449C10.8873 10.5632 10.8493 10.6394 10.7731 10.7536C10.678 10.8487 10.5828 10.9819 10.5067 11.0581C10.4115 11.1532 10.3164 11.2484 10.4306 11.4197C10.5448 11.591 10.9064 12.181 11.4393 12.6568C12.1245 13.2658 12.7145 13.4562 12.8858 13.5513C13.057 13.6465 13.1712 13.6275 13.2664 13.5133C13.3806 13.3991 13.7232 12.9994 13.8374 12.8091C13.9516 12.6378 14.0848 12.6568 14.2371 12.7139C14.4084 12.771 15.2839 13.2088 15.4742 13.3039C15.6455 13.3991 15.7787 13.4371 15.8168 13.5133C15.8739 13.5513 15.8739 13.913 15.7406 14.3317Z" fill="white"/>
<path d="M20.5 0L3.5 0.000205994C2 0 0 0.990234 0 3.49023V20.4902C0 22 1 23.9812 3.5 23.9812H20.5C23 23.9902 24 22 24 20.4902V3.49023C24 2 23 0 20.5 0ZM12.1237 19.0898C10.8295 19.0898 9.63045 18.7663 8.56463 18.1763L4.49167 19.4705L5.82395 15.5688C5.15781 14.4649 4.77716 13.1707 4.77716 11.8004C4.77716 7.76547 8.06979 4.51091 12.1237 4.51091C16.1776 4.51091 19.4703 7.76547 19.4703 11.8004C19.4703 15.8353 16.1776 19.0898 12.1237 19.0898Z" fill="white"/>
</svg>

<svg width="24" height="24" fill="none" xmlns="http://www.w3.org/2000/svg"><path d="M12.124 5.672c-3.406 0-6.166 2.74-6.166 6.128 0 1.333.438 2.589 1.18 3.598l-.78 2.283 2.379-.76a6.128 6.128 0 003.406 1.008c3.407 0 6.186-2.74 6.186-6.129-.019-3.387-2.798-6.128-6.205-6.128zm3.617 8.66c-.153.418-.895.818-1.218.856-.324.038-.324.267-2.17-.438-1.827-.723-2.988-2.569-3.083-2.702-.096-.114-.743-.97-.743-1.846 0-.876.457-1.314.628-1.485a.719.719 0 01.476-.228c.114 0 .248.019.343.019.114 0 .247-.057.4.304.152.362.513 1.237.551 1.333.038.095.076.19.02.304-.058.114-.096.19-.172.305-.095.095-.19.228-.266.304-.095.095-.19.19-.076.362.114.171.475.761 1.008 1.237.685.609 1.275.8 1.447.894.171.095.285.076.38-.038.115-.114.457-.514.571-.704.115-.171.248-.152.4-.095.171.057 1.047.495 1.237.59.171.095.305.133.343.21.057.037.057.399-.076.818z" fill="#fff"/><path d="M20.5 0h-17C2 0 0 .99 0 3.49v17c0 1.51 1 3.491 3.5 3.491h17c2.5.01 3.5-1.981 3.5-3.49v-17C24 2 23 0 20.5 0zm-8.376 19.09a7.28 7.28 0 01-3.56-.914l-4.072 1.295 1.332-3.902A7.282 7.282 0 014.777 11.8c0-4.035 3.293-7.29 7.347-7.29s7.346 3.255 7.346 7.29-3.292 7.29-7.346 7.29z" fill="#fff"/></svg>
